svg/SJJB-OpenStreetMapIcons/tourist/casino.svg

<?xml version="1.0" encoding="UTF-8" standalone="no"?>
<!-- Created with Inkscape (http://www.inkscape.org/) -->
<svg
   xmlns:dc="http://purl.org/dc/elements/1.1/"
   xmlns:cc="http://creativecommons.org/ns#"
   xmlns:rdf="http://www.w3.org/1999/02/22-rdf-syntax-ns#"
   xmlns:svg="http://www.w3.org/2000/svg"
   xmlns="http://www.w3.org/2000/svg"
   xmlns:sodipodi="http://sodipodi.sourceforge.net/DTD/sodipodi-0.dtd"
   xmlns:inkscape="http://www.inkscape.org/namespaces/inkscape"
   version="1.0"
   width="580"
   height="580"
   id="svg2"
   sodipodi:version="0.32"
   inkscape:version="0.46"
   sodipodi:docname="tourist_casino.svg"
   inkscape:output_extension="org.inkscape.output.svg.inkscape">
  <metadata
     id="metadata10">
    <rdf:RDF>
      <cc:Work
         rdf:about="">
        <dc:format>image/svg+xml</dc:format>
        <dc:type
           rdf:resource="http://purl.org/dc/dcmitype/StillImage" />
        <cc:license
           rdf:resource="http://web.resource.org/cc/PublicDomain" />
        <dc:language>en</dc:language>
      </cc:Work>
    </rdf:RDF>
  </metadata>
  <sodipodi:namedview
     inkscape:window-height="1003"
     inkscape:window-width="1400"
     inkscape:pageshadow="2"
     inkscape:pageopacity="0.0"
     guidetolerance="10.0"
     gridtolerance="10.0"
     objecttolerance="10.0"
     borderopacity="1.0"
     bordercolor="#666666"
     pagecolor="#ffffff"
     id="base"
     showgrid="false"
     inkscape:zoom="0.39827586"
     inkscape:cx="640.611"
     inkscape:cy="509.79495"
     inkscape:window-x="0"
     inkscape:window-y="20"
     inkscape:current-layer="svg2" />
  <defs
     id="defs4">
    <inkscape:perspective
       sodipodi:type="inkscape:persp3d"
       inkscape:vp_x="0 : 290 : 1"
       inkscape:vp_y="0 : 1000 : 0"
       inkscape:vp_z="580 : 290 : 1"
       inkscape:persp3d-origin="290 : 193.33333 : 1"
       id="perspective12" />
    <inkscape:perspective
       id="perspective2539"
       inkscape:persp3d-origin="16 : 10.666667 : 1"
       inkscape:vp_z="32 : 16 : 1"
       inkscape:vp_y="0 : 1000 : 0"
       inkscape:vp_x="0 : 16 : 1"
       sodipodi:type="inkscape:persp3d" />
    <inkscape:perspective
       id="perspective2550"
       inkscape:persp3d-origin="372.04724 : 350.78739 : 1"
       inkscape:vp_z="744.09448 : 526.18109 : 1"
       inkscape:vp_y="0 : 1000 : 0"
       inkscape:vp_x="0 : 526.18109 : 1"
       sodipodi:type="inkscape:persp3d" />
    <inkscape:perspective
       id="perspective2563"
       inkscape:persp3d-origin="372.04724 : 350.78739 : 1"
       inkscape:vp_z="744.09448 : 526.18109 : 1"
       inkscape:vp_y="0 : 1000 : 0"
       inkscape:vp_x="0 : 526.18109 : 1"
       sodipodi:type="inkscape:persp3d" />
  </defs>
  <g
     id="g1327">
    <path
       d="M 66.275,1.768 C 24.94,1.768 1.704,23.139 1.704,66.804 L 1.704,516.927 C 1.704,557.771 22.598,579.156 63.896,579.156 L 515.92,579.156 C 557.227,579.156 578.149,558.84 578.149,516.927 L 578.149,66.804 C 578.149,24.203 557.227,1.768 514.627,1.768 C 514.624,1.768 66.133,1.625 66.275,1.768 z"
       style="fill:#111111;stroke:#eeeeee;stroke-width:3.40799999"
       id="path1329" />
  </g>
  <path
     style="opacity:1;fill:#ffffff;fill-opacity:1;fill-rule:evenodd;stroke:#ffffff;stroke-width:17.88634109;stroke-linecap:round;stroke-linejoin:round;stroke-miterlimit:4;stroke-dasharray:none;stroke-opacity:1"
     d="M 87.536753,153.58001 C 148.63677,200.58987 209.73679,247.59975 270.83681,294.60961 C 346.551,254.55167 422.26517,214.49371 497.97936,174.43576 C 437.03073,128.45063 376.08208,82.465506 315.13345,36.480373 C 239.26789,75.513585 163.40232,114.54679 87.536753,153.58001 z M 296.05935,122.38372 C 314.74099,121.47171 335.72572,130.6626 342.03283,149.4927 C 348.87322,167.67265 333.96193,186.25878 317.1247,191.83302 C 296.02761,199.39382 267.93759,196.23653 254.87185,176.11261 C 245.41549,163.33568 249.23955,144.75033 261.02028,134.89018 C 270.5392,126.46542 283.47399,122.53401 296.05935,122.38372 z"
     id="path2569" />
  <path
     style="opacity:1;fill:#ffffff;fill-opacity:1;fill-rule:evenodd;stroke:#ffffff;stroke-width:17.88634109;stroke-linecap:round;stroke-linejoin:round;stroke-miterlimit:4;stroke-dasharray:none;stroke-opacity:1"
     d="M 75.973514,184.21735 C 79.01481,253.72147 79.482711,323.31162 82.680891,392.80981 C 139.79535,443.1562 198.64974,491.44621 255.85001,541.7695 C 255.21,467.67393 254.5695,393.57837 253.92863,319.4828 C 194.58697,273.82373 135.2453,228.16465 75.903645,182.50558 L 75.949235,183.62254 L 75.973514,184.21735 z M 118.0693,243.32612 C 139.05016,243.62497 153.7074,263.18579 158.20876,282.06821 C 164.63084,299.39864 154.84197,323.69494 134.94254,325.84084 C 112.92608,326.77919 96.570764,306.10919 92.846761,286.12059 C 86.424849,268.47759 97.799365,244.06189 118.0693,243.32612 z M 190.94216,398.43423 C 212.1513,398.45696 226.55447,418.42095 231.22136,437.24619 C 237.48506,454.25216 228.34505,477.57819 209.24771,480.70441 C 188.45437,483.00725 172.23752,464.27175 166.83949,445.93029 C 160.38012,429.93427 165.22326,408.49161 181.61471,400.67002 C 184.51165,399.23177 187.73438,398.61563 190.94216,398.43423 z"
     id="path3341" />
  <path
     style="opacity:1;fill:#ffffff;fill-opacity:1;fill-rule:evenodd;stroke:#ffffff;stroke-width:17.88634109;stroke-linecap:round;stroke-linejoin:round;stroke-miterlimit:4;stroke-dasharray:none;stroke-opacity:1"
     d="M 285.22973,321.68366 C 285.87019,395.24356 286.51064,468.80348 287.15111,542.36338 C 361.072,499.27779 434.99289,456.19221 508.91379,413.10662 C 509.78714,342.70244 510.6605,272.29827 511.53386,201.89409 C 436.09914,241.82395 360.66444,281.75381 285.22973,321.68366 z M 480.3725,242.52263 C 496.10466,241.9729 508.34756,257.49533 506.81773,272.63596 C 506.05311,294.14471 489.54914,313.18248 469.85728,320.18149 C 454.43886,324.66933 434.62344,314.36879 434.25927,297.12488 C 431.64141,270.60188 453.88579,244.51779 480.3725,242.52263 z M 416.65241,335.13335 C 431.95211,334.58987 444.0468,349.52606 442.92297,364.33839 C 442.69913,385.7895 426.53355,405.26679 406.90575,412.58261 C 391.29158,417.53361 370.71806,407.3055 370.39945,389.56093 C 367.83361,363.08349 390.17142,337.07711 416.65241,335.13335 z M 352.02403,424.94933 C 367.18376,424.95149 378.78311,439.68332 377.70071,454.32904 C 377.36901,475.99689 360.83019,495.44069 341.01974,502.53832 C 325.5401,507.1636 305.64678,497.03979 305.17719,479.65638 C 302.38588,452.91661 325.24543,426.37651 352.02403,424.94933 z"
     id="path3343" />
</svg>

<svg xmlns="http://www.w3.org/2000/svg" viewBox="0 0 580 580"><path d="m66.28 1.768c-41.34 0-64.57 21.371-64.57 65.04v450.12c0 40.844 20.894 62.23 62.19 62.23h452.02c41.31 0 62.23-20.316 62.23-62.23v-450.12c0-42.601-20.922-65.04-63.52-65.04-.003 0-448.49-.143-448.35 0z" fill="#111" stroke="#eee" stroke-width="3.408"/><g fill="#fff" fill-rule="evenodd" stroke="#fff" stroke-linejoin="round" stroke-linecap="round" stroke-width="17.886"><path d="m87.54 153.58c61.1 47.01 122.2 94.02 183.3 141.03 75.71-40.06 151.43-80.12 227.14-120.17-60.949-45.985-121.9-91.97-182.85-137.96-75.866 39.03-151.73 78.07-227.6 117.1zm208.52-31.2c18.682-.912 39.666 8.279 45.973 27.11 6.84 18.18-8.07 36.766-24.908 42.34-21.1 7.561-49.19 4.404-62.25-15.72-9.456-12.777-5.632-31.362 6.148-41.22 9.519-8.425 22.454-12.356 35.04-12.506z"/><path d="m75.974 184.22c3.041 69.5 3.509 139.09 6.707 208.59 57.11 50.35 115.97 98.64 173.17 148.96-.64-74.1-1.281-148.19-1.921-222.29-59.34-45.659-118.68-91.32-178.02-136.98l.046 1.117.024.595zm42.1 59.11c20.981.299 35.638 19.86 40.14 38.742 6.422 17.33-3.367 41.627-23.266 43.773-22.02.938-38.37-19.732-42.1-39.72-6.422-17.643 4.953-42.06 25.22-42.794zm72.873 155.11c21.21.023 35.612 19.987 40.28 38.812 6.264 17.01-2.876 40.33-21.974 43.46-20.793 2.303-37.01-16.433-42.41-34.774-6.459-15.996-1.616-37.439 14.775-45.26 2.897-1.438 6.12-2.054 9.327-2.236z"/><path d="m285.23 321.68c.64 73.56 1.281 147.12 1.921 220.68 73.921-43.09 147.84-86.17 221.76-129.26.873-70.4 1.747-140.81 2.62-211.21-75.43 39.93-150.87 79.86-226.3 119.79zm195.14-79.16c15.732-.55 27.975 14.973 26.445 30.11-.765 21.509-17.269 40.547-36.96 47.546-15.418 4.488-35.23-5.813-35.598-23.06-2.618-26.523 19.627-52.607 46.11-54.602zm-63.72 92.61c15.3-.543 27.394 14.393 26.27 29.21-.224 21.451-16.389 40.928-36.02 48.24-15.614 4.951-36.19-5.277-36.506-23.02-2.566-26.477 19.772-52.48 46.25-54.43zm-64.63 89.82c15.16.002 26.759 14.734 25.677 29.38-.332 21.668-16.871 41.11-36.681 48.21-15.48 4.625-35.37-5.499-35.843-22.882-2.791-26.74 20.07-53.28 46.847-54.707z"/></g></svg>
